X: 34795
T: Road To Skye, The
R: jig
M: 6/8
K: Gmajor
|:GFG DB,D|GBd ~e2d|gdB BAB|cBc E2F|
GFG DB,D|GBd ~e2d|gdB BAB|1 cEF GBA:|2 cEF G3||
|:GBd GBd|GBd cBA|GBd eag|fd^c def|
geg fdf|ece dBd|cBc Adc|1 BGF G3:|2 BGF GBA||

